_images/main-visual-overwrap2.svg

<svg xmlns="http://www.w3.org/2000/svg" width="1920" height="1080" fill="none"><path fill="#000" d="M1122.97 524.603c0-6.95-5.61-12.58-12.52-12.58h-24.67v25.17h24.67c6.92 0 12.52-5.63 12.52-12.58v-.01ZM804.34 536.739h16l-8-21.77-8 21.77Z"/><path fill="#000" d="M0 0v1080h1920V0H0Zm833.48 572.45-11.11-30.21h-20.04l-11.11 30.21H785l24.24-65.93h6.22l24.24 65.93h-6.22Zm58.71-60.44h-33.9v24.72h33.9v5.5h-33.9v24.72h33.9v5.49h-39.38v-65.93h39.38v5.5Zm61.25 0h-21.32v60.44h-5.48v-60.44h-21.32v-5.49h48.12v5.49Zm61.25 24.72v35.71h-5.47v-30.21h-37.19v30.21h-5.46v-65.93h5.46v30.21h37.19v-30.21h5.47V536.73Zm52.5-24.72h-33.91v24.72h33.91v5.5h-33.91v24.72h33.91v5.49h-39.38v-65.93h39.38v5.5Zm61.59 60.43-18.33-29.78h-24.67v29.78h-5.46v-65.92h30.13c9.93 0 17.99 8.09 17.99 18.07 0 8-5.18 14.78-12.34 17.16l.56.92 18.34 29.77h-6.22Z"/></svg>

<svg width="1920" height="1080" viewBox="0 0 1920 1080" fill="none" xmlns="http://www.w3.org/2000/svg">
<path d="M1122.97 524.603C1122.97 517.653 1117.36 512.023 1110.45 512.023H1085.78V537.193H1110.45C1117.37 537.193 1122.97 531.563 1122.97 524.613V524.603Z" fill="black"/>
<path d="M804.34 536.739H820.34L812.34 514.969L804.34 536.739Z" fill="black"/>
<path d="M0 0V1080H1920V0H0ZM833.48 572.45L822.37 542.24H802.33L791.22 572.45H785L809.24 506.52H815.46L839.7 572.45H833.48ZM892.19 512.01H858.29V536.73H892.19V542.23H858.29V566.95H892.19V572.44H852.81V506.51H892.19V512V512.01ZM953.44 512.01H932.12V572.45H926.64V512.01H905.32V506.52H953.44V512.01ZM1014.69 536.73V572.44H1009.22V542.23H972.03V572.44H966.57V506.51H972.03V536.72H1009.22V506.51H1014.69V536.72V536.73ZM1067.19 512.01H1033.28V536.73H1067.19V542.23H1033.28V566.95H1067.19V572.44H1027.81V506.51H1067.19V512V512.01ZM1128.78 572.44L1110.45 542.66H1085.78V572.44H1080.32V506.52H1110.45C1120.38 506.52 1128.44 514.61 1128.44 524.59C1128.44 532.59 1123.26 539.37 1116.1 541.75L1116.66 542.67L1135 572.44H1128.78Z" fill="black"/>
</svg>
